X: 19959
T: Jim Anderson's Delight
R: jig
M: 6/8
K: Gmajor
|:g|dGG BAG|d>ef g2 f|eAA efg|a>gf g2 e|
dGG BGG|dd/e/f gfe|d>cB cBA|BGG G2:|
|:e|d2 g B2 g|def g2 g|eAA ee/f/g|a>gf g2 e|
[1 dgg Bgg|dd/e/f g2 e|d>cB c2 A|BGG G2:|
[2 dGG BGG|def g2 e|d>cB cBA|BGG G2||

